outputs/icons/people/person_move_round.svg

<svg xmlns="http://www.w3.org/2000/svg" width="1200" height="1200" fill="none"><path fill="#000" d="M550 600c110.455 0 200-89.545 200-200 0-110.457-89.545-200-200-200-110.457 0-200 89.543-200 200 0 110.455 89.543 200 200 200M583.5 651c-11-.5-22-1-33.5-1-121 0-234 33.5-330.5 91-44 26-69.5 75-69.5 126.5V950c0 27.615 22.386 50 50 50h413c-39.5-56.5-63-125.5-63-200 0-53.5 12.5-103.5 33.5-149M850.5 630.23c0-11.145 13.48-16.715 21.35-8.825l169.345 169.765c4.865 4.88 4.865 12.78 0 17.66L871.85 978.595c-7.87 7.89-21.35 2.32-21.35-8.825V850H700c-27.615 0-50-22.385-50-50s22.385-50 50-50h150.5z"/></svg>

<svg width="1200" height="1200" viewBox="0 0 1200 1200" fill="none" xmlns="http://www.w3.org/2000/svg"><path d="M550 600C660.455 600 750 510.455 750 400C750 289.543 660.455 200 550 200C439.543 200 350 289.543 350 400C350 510.455 439.543 600 550 600Z" fill="#1D1E23"/><path d="M583.5 651C572.5 650.5 561.5 650 550 650C429 650 316 683.5 219.5 741C175.5 767 150 816 150 867.5V950C150 977.615 172.386 1000 200 1000H613C573.5 943.5 550 874.5 550 800C550 746.5 562.5 696.5 583.5 651Z" fill="#1D1E23"/><path d="M850.5 630.23C850.5 619.085 863.98 613.515 871.85 621.405L1041.195 791.17C1046.06 796.05 1046.06 803.95 1041.195 808.83L871.85 978.595C863.98 986.485 850.5 980.915 850.5 969.77V850H700C672.385 850 650 827.615 650 800C650 772.385 672.385 750 700 750H850.5V630.23Z" fill="#1D1E23"/></svg>
